X:488
T:Lord James Murray
R:Reel
C:Niel Gow
B:The Athole Collection
M:C|
L:1/8
K:D
F|d2 A/B/c dAFD|Eeed cABc|dABd AdAF|GBAF D/D/D D:|
f/g/|adfd fadf|bege gbeg|adfd fadf|geaf d/d/d df|adfd fadf|
bege gbeg|faef deBd|AdAF D/D/D D||

